usr/share/icons/biglinux-icons-material/24/actions/tools-rip-video-dvd.svg

<svg xmlns="http://www.w3.org/2000/svg" viewBox="0 0 24 24"><path d="M12 4c-4.432 0-8 3.568-8 8s3.568 8 8 8v-1c-3.878 0-7-3.122-7-7s3.122-7 7-7 7 3.122 7 7h1c0-4.432-3.568-8-8-8zm0 6c-1.108 0-2 .892-2 2s.892 2 2 2v-1c-.554 0-1-.446-1-1s.446-1 1-1 1 .446 1 1h1c0-1.108-.892-2-2-2zm2.5 4a1.497 1.497 0 0 0-.5 2.908V20h4v-3c.554 0 1-.446 1-1s-.446-1-1-1-1 .446-1 1h-1.092c.056-.157.092-.323.092-.5 0-.831-.669-1.5-1.5-1.5zm3.5 4 2 2v-4l-2 2zm-3-1h2v2h-2v-2z" style="fill:currentColor;fill-opacity:1;stroke:none;color:#dedede"/></svg>

<svg xmlns="http://www.w3.org/2000/svg" viewBox="0 0 24 24">
  <defs id="defs3051">
    <style type="text/css" id="current-color-scheme">
      .ColorScheme-Text {
        color:#363636;
      }
      </style>
  </defs>
 <path style="fill:currentColor;fill-opacity:1;stroke:none" 
     d="M 12 4 C 7.568 4 4 7.568 4 12 C 4 16.432 7.568 20 12 20 L 12 19 C 8.122 19 5 15.878 5 12 C 5 8.122 8.122 5 12 5 C 15.878 5 19 8.122 19 12 L 20 12 C 20 7.568 16.432 4 12 4 z M 12 10 C 10.892 10 10 10.892 10 12 C 10 13.108 10.892 14 12 14 L 12 13 C 11.446 13 11 12.554 11 12 C 11 11.446 11.446 11 12 11 C 12.554 11 13 11.446 13 12 L 14 12 C 14 10.892 13.108 10 12 10 z M 14.5 14 C 13.669 14 13 14.669 13 15.5 C 13 16.15424 13.418077 16.702197 14 16.908203 L 14 20 L 18 20 L 18 18 L 18 17 C 18.554 17 19 16.554 19 16 C 19 15.446 18.554 15 18 15 C 17.446 15 17 15.446 17 16 L 15.908203 16 C 15.963861 15.842779 16 15.67676 16 15.5 C 16 14.669 15.331 14 14.5 14 z M 18 18 L 20 20 L 20 16 L 18 18 z M 15 17 L 17 17 L 17 19 L 15 19 L 15 17 z "
     class="ColorScheme-Text"
     />
</svg>
